src/1-subject/sit.svg

<svg width="1300" height="1000" viewBox="0 0 1300 1000" fill="none" xmlns="http://www.w3.org/2000/svg"><path d="M380.5 605.5c0-2.5 7.476-61.465 25.004-97.5 15.049-29.175 39.06-33.545 77.179-33.979 36.975-.426 67.042 5.516 82.944 33.197C580 543.5 587 605.5 587 605.5v61l8.92 18.387c6.395 13.18-5.055 27.986-19.42 25.113l-9-17-6 174 21.151 14.436A13.844 13.844 0 0 1 587 899.5h-84.5l1-21.5-1.072-.953a10.002 10.002 0 0 1-3.355-7.633L501.5 717.5 485.504 704 470 717.5l1.946 151.283a10.002 10.002 0 0 1-2.928 7.199L468 877l1 21.5h-86.5a13.982 13.982 0 0 1 4.708-17.859L409 866l-6-173-10 17c-12.173 3.043-22.933-8.507-19.036-20.435L381.5 666.5s-1-17-1-61Z" fill="#fff"/><path d="M388.07 604.47s5.44-56.683 21.98-91.955c14.201-28.557 36.989-32.07 72.96-32.495 34.892-.416 63.264 5.4 78.27 32.495C572 541 580 605 580 605v60.855l10.283 22.469c3.33 7.275-1.359 15.691-9.297 16.69a1.481 1.481 0 0 1-1.475-.742L561.28 672 546 601.09l-7.341-49.988a1.266 1.266 0 0 0-2.511.317L543 616l6 22.5 7 23.5c-17.759-20.404-51.31-9.67-53.927 17.253L502 680v31l-12.071-11.019a6.735 6.735 0 0 0-9.128.043L469 711v-31c-2.462-27.269-36.31-38.464-54.5-18l6.49-23.5 4.6-22.5 6.278-64.644a1.226 1.226 0 0 0-2.432-.299l-7.446 50.033-6.47 35.455L409.05 672l-19.698 32.835a.51.51 0 0 1-.529.239c-6.02-1.103-9.72-7.221-7.9-13.064l8.147-26.155-1.01-61.385h.01Z" fill="#000"/><path d="M472.324 472c3.926 1.471 11.257 1.995 13.176 2 0 0 8.646-.072 13.682-2 5.676-2.172 8.837-4.293 12.669-8.96 2.619-3.188 4.662-8.697 5.57-11.42.358-1.076.606-2.181.795-3.3l4.277-25.32s.516-3.649.507-6c-.02-5.591-.777-8.874-3.041-14-2.325-5.265-4.358-8.083-8.614-12-4.537-4.176-7.807-6-13.683-7.968-4.561-1.528-7.345-1.993-12.162-2.032-5.17.175-7.095.5-12.029 2.032-4.938 1.649-9.979 4.57-13.816 7.968-3.836 3.398-6.521 7.42-8.614 12-2.094 4.58-3.039 9.002-3.041 14 .001 1.885.208 4.137.507 6l5.084 24.993a24.33 24.33 0 0 0 1.005 3.605c1.072 2.894 3.346 8.603 5.566 11.402 3.047 3.841 7.466 7.241 12.162 9Z" fill="#fff"/><path d="M474.432 466.258c3.298 1.281 9.456 1.738 11.068 1.742 0 0 7.263-.063 11.493-1.742 4.767-1.892 7.423-3.739 10.642-7.804 2.15-2.714 3.839-7.36 4.625-9.782.339-1.045.572-2.118.748-3.202l3.566-21.889s.433-3.178.426-5.226c-.017-4.87-.652-7.729-2.554-12.194-1.953-4.585-3.662-7.039-7.237-10.451-3.811-3.637-6.558-5.226-11.493-6.94-3.832-1.331-6.17-1.736-10.216-1.77-4.342.152-5.959.435-10.104 1.77-4.148 1.436-8.383 3.98-11.605 6.94-3.223 2.959-5.478 6.462-7.237 10.451-1.759 3.99-2.552 7.841-2.554 12.194 0 1.641.175 3.603.426 5.226l4.234 21.584c.234 1.19.535 2.363.946 3.504.924 2.57 2.789 7.37 4.61 9.75 2.56 3.346 6.272 6.307 10.216 7.839ZM437 658c19.668 0 24.782 16.243 26.025 22.543.322 1.63.39 3.287.419 4.949l3.22 183.74a4.234 4.234 0 0 1-4.264 4.309l.991 21.98L411.5 899h-21c-3.713-4.227-2.872-10.754 1.793-13.902l23.027-15.537L409 683.999S412.6 658 437 658Z" fill="#000"/><path d="M437 658c19.668 0 24.782 16.243 26.025 22.543.322 1.63.39 3.287.419 4.949l3.22 183.74a4.234 4.234 0 0 1-4.264 4.309l.991 21.98L411.5 899h-21c-3.713-4.227-2.872-10.754 1.793-13.902l23.027-15.537L409 683.999S412.6 658 437 658Z" stroke="#000"/><path d="M533.738 658c-19.667 0-24.781 16.243-26.025 22.543-.322 1.63-.389 3.287-.418 4.949l-3.221 183.74a4.236 4.236 0 0 0 4.264 4.309l-.99 21.98 51.89 3.479h21c3.714-4.227 2.872-10.754-1.792-13.902l-23.028-15.537 6.32-185.562s-3.6-25.999-28-25.999Z" fill="#000"/><path d="M533.738 658c-19.667 0-24.781 16.243-26.025 22.543-.322 1.63-.389 3.287-.418 4.949l-3.221 183.74a4.236 4.236 0 0 0 4.264 4.309l-.99 21.98 51.89 3.479h21c3.714-4.227 2.872-10.754-1.792-13.902l-23.028-15.537 6.32-185.562s-3.6-25.999-28-25.999Z" stroke="#000"/></svg>

<svg width="1300" height="1000" viewBox="0 0 1300 1000" fill="none" xmlns="http://www.w3.org/2000/svg">
<path d="M380.5 605.5C380.5 603 387.976 544.035 405.504 508C420.553 478.825 444.564 474.455 482.683 474.021C519.658 473.595 549.725 479.537 565.627 507.218C580 543.5 587 605.5 587 605.5V666.5L595.92 684.887C602.315 698.067 590.865 712.873 576.5 710L567.5 693L561.5 867L582.651 881.436C588.526 885.446 590.406 893.256 587 899.5H555H502.5L503.5 878L502.428 877.047C500.252 875.113 499.027 872.325 499.073 869.414L501.5 717.5L485.504 704L470 717.5L471.946 868.783C471.98 871.479 470.925 874.075 469.018 875.982L468 877L469 898.5H416.5H382.5C379.355 892.21 381.371 884.563 387.208 880.641L409 866L403 693L393 710C380.827 713.043 370.067 701.493 373.964 689.565L381.5 666.5C381.5 666.5 380.5 649.5 380.5 605.5Z" fill="white"/>
<path d="M388.07 604.47C388.07 604.47 393.51 547.787 410.05 512.515C424.251 483.958 447.039 480.445 483.01 480.02C517.902 479.604 546.274 485.42 561.28 512.515C572 541 580 605 580 605V665.855L590.283 688.324C593.613 695.599 588.924 704.015 580.986 705.014C580.389 705.089 579.807 704.796 579.511 704.272L561.28 672L546 601.09L538.659 551.102C538.568 550.481 538.035 550.02 537.407 550.02C536.655 550.02 536.069 550.672 536.148 551.419L543 616L549 638.5L556 662C538.241 641.596 504.69 652.33 502.073 679.253L502 680V711L489.929 699.981C488.688 698.848 487.068 698.22 485.388 698.22C483.686 698.22 482.047 698.865 480.801 700.024L469 711V680C466.538 652.731 432.69 641.536 414.5 662L420.99 638.5L425.59 616L431.868 551.356C431.939 550.631 431.366 550.005 430.638 550.011C430.035 550.017 429.525 550.46 429.436 551.057L421.99 601.09L415.52 636.545L409.05 672L389.352 704.835C389.242 705.017 389.032 705.112 388.823 705.074C382.803 703.971 379.103 697.853 380.923 692.01L389.07 665.855L388.06 604.47H388.07Z" fill="black"/>
<path d="M472.324 472C476.25 473.471 483.581 473.995 485.5 474C485.5 474 494.146 473.928 499.182 472C504.858 469.828 508.019 467.707 511.851 463.04C514.47 459.852 516.513 454.343 517.421 451.62C517.779 450.544 518.027 449.439 518.216 448.32L522.493 423C522.493 423 523.009 419.351 523 417C522.98 411.409 522.223 408.126 519.959 403C517.634 397.735 515.601 394.917 511.345 391C506.808 386.824 503.538 385 497.662 383.032C493.101 381.504 490.317 381.039 485.5 381C480.33 381.175 478.405 381.5 473.471 383.032C468.533 384.681 463.492 387.602 459.655 391C455.819 394.398 453.134 398.42 451.041 403C448.947 407.58 448.002 412.002 448 417C448.001 418.885 448.208 421.137 448.507 423L453.591 447.993C453.84 449.218 454.162 450.425 454.596 451.598C455.668 454.492 457.942 460.201 460.162 463C463.209 466.841 467.628 470.241 472.324 472Z" fill="white"/>
<path d="M474.432 466.258C477.73 467.539 483.888 467.996 485.5 468C485.5 468 492.763 467.937 496.993 466.258C501.76 464.366 504.416 462.519 507.635 458.454C509.785 455.74 511.474 451.094 512.26 448.672C512.599 447.627 512.832 446.554 513.008 445.47L516.574 423.581C516.574 423.581 517.007 420.403 517 418.355C516.983 413.485 516.348 410.626 514.446 406.161C512.493 401.576 510.784 399.122 507.209 395.71C503.398 392.073 500.651 390.484 495.716 388.77C491.884 387.439 489.546 387.034 485.5 387C481.158 387.152 479.541 387.435 475.396 388.77C471.248 390.206 467.013 392.75 463.791 395.71C460.568 398.669 458.313 402.172 456.554 406.161C454.795 410.151 454.002 414.002 454 418.355C454 419.996 454.175 421.958 454.426 423.581L458.66 445.165C458.894 446.355 459.195 447.528 459.606 448.669C460.53 451.239 462.395 456.039 464.216 458.419C466.776 461.765 470.488 464.726 474.432 466.258Z" fill="black"/>
<path d="M437 658C456.668 658 461.782 674.243 463.025 680.543C463.347 682.173 463.415 683.83 463.444 685.492L466.664 869.232C466.706 871.611 464.78 873.558 462.4 873.541L463.391 895.521L411.5 899H390.5C386.787 894.773 387.628 888.246 392.293 885.098L415.32 869.561L409 683.999C409 683.999 412.6 658 437 658Z" fill="black"/>
<path d="M437 658C456.668 658 461.782 674.243 463.025 680.543C463.347 682.173 463.415 683.83 463.444 685.492L466.664 869.232C466.706 871.611 464.78 873.558 462.4 873.541L463.391 895.521L411.5 899H390.5C386.787 894.773 387.628 888.246 392.293 885.098L415.32 869.561L409 683.999C409 683.999 412.6 658 437 658Z" stroke="black"/>
<path d="M533.738 658C514.071 658 508.957 674.243 507.713 680.543C507.391 682.173 507.324 683.83 507.295 685.492L504.074 869.232C504.033 871.611 505.959 873.558 508.338 873.541L507.348 895.521L559.238 899H580.238C583.952 894.773 583.11 888.246 578.446 885.098L555.418 869.561L561.738 683.999C561.738 683.999 558.138 658 533.738 658Z" fill="black"/>
<path d="M533.738 658C514.071 658 508.957 674.243 507.713 680.543C507.391 682.173 507.324 683.83 507.295 685.492L504.074 869.232C504.033 871.611 505.959 873.558 508.338 873.541L507.348 895.521L559.238 899H580.238C583.952 894.773 583.11 888.246 578.446 885.098L555.418 869.561L561.738 683.999C561.738 683.999 558.138 658 533.738 658Z" stroke="black"/>
</svg>
